svgs/thin/circle-stop.svg

<svg xmlns="http://www.w3.org/2000/svg" viewBox="0 0 512 512"><!-- Font Awesome Pro 6.0.0-alpha2 by @fontawesome - https://fontawesome.com License - https://fontawesome.com/license (Commercial License) --><path d="M256 16C123.42 16 16 123.418 16 256C16 388.58 123.42 496 256 496S496 388.58 496 256C496 123.418 388.58 16 256 16ZM256 480C132.486 480 32 379.514 32 256S132.486 32 256 32S480 132.486 480 256S379.514 480 256 480ZM328 160H184C170.801 160 160 170.799 160 184V328C160 341.199 170.801 352 184 352H328C341.199 352 352 341.199 352 328V184C352 170.799 341.199 160 328 160ZM336 328C336 332.336 332.336 336 328 336H184C179.664 336 176 332.336 176 328V184C176 179.664 179.664 176 184 176H328C332.336 176 336 179.664 336 184V328Z"/></svg>

<svg xmlns="http://www.w3.org/2000/svg" viewBox="0 0 512 512"><!--! Font Awesome Pro 6.3.0 by @fontawesome - https://fontawesome.com License - https://fontawesome.com/license (Commercial License) Copyright 2023 Fonticons, Inc. --><path d="M328 160h-144C170.8 160 160 170.8 160 184v144C160 341.2 170.8 352 184 352h144c13.2 0 24-10.8 24-24v-144C352 170.8 341.2 160 328 160zM336 328c0 4.336-3.664 8-8 8h-144c-4.336 0-8-3.664-8-8v-144c0-4.336 3.664-8 8-8h144c4.336 0 8 3.664 8 8V328zM256 0C114.6 0 0 114.6 0 256s114.6 256 256 256s256-114.6 256-256S397.4 0 256 0zM256 496c-132.3 0-240-107.7-240-240S123.7 16 256 16s240 107.7 240 240S388.3 496 256 496z"/></svg>
